images/close_hamburger.svg

<svg width="23" height="23" viewBox="0 0 23 23" fill="none" xmlns="http://www.w3.org/2000/svg">
    <path fill-rule="evenodd" clip-rule="evenodd" d="M1.41452 0L0.000305176 1.41421L9.89966 11.3136L0 21.2132L1.41422 22.6274L11.3139 12.7278L21.2135 22.6274L22.6277 21.2132L12.7281 11.3136L22.6274 1.41422L21.2132 1.90735e-06L11.3139 9.89934L1.41452 0Z" fill="#8F68FC"/>
</svg>

<svg width="23" height="23" fill="none" xmlns="http://www.w3.org/2000/svg"><path fill-rule="evenodd" clip-rule="evenodd" d="M1.415 0L0 1.414l9.9 9.9-9.9 9.9 1.414 1.413 9.9-9.9 9.9 9.9 1.414-1.414-9.9-9.9 9.9-9.899L21.212 0l-9.9 9.9L1.416 0z" fill="#8F68FC"/></svg>
